X: 13761
T: Forgotten Fling
R: hornpipe
M: 4/4
K: Gmajor
E|:DEGA ~G3A|Bd~d2 egge|dege dBA2|BdA2 GEDE|
~G3A GED2|Bd~d2 egge|dB~B2 dBA2|1 BdAB G3E:|2 BdA2 GABc||
|:~d3B d2Bd|egge ~g3e|dege dBA2|BdA2 GED2|
Bd~d2 ed~d2|egge ~g3e|dB~B2 dBA2|BdAB GABc|
~d3B d2Bd|egge ~g3e|d2ge dBA2|BdA2 GED2|
Bd~d2 ed~d2|egge ~g3e|dB~B2 dBA2|BdAB G3E||

